X: 135
T: No_69_The_Rocks_are_Shaking.krn
N: Derived from No_69_The_Rocks_are_Shaking.krn
%%abc-version 2.0
%%abcx-abcm2ps-target-version 5.9.1 (29 Sep 2008)
%%abc-creator hum2abc beta
%%abcx-conversion-date 2019/03/15 08:37:56
%%humdrum-veritas 1099953297
%%humdrum-veritas-data 1475121341
%%linebreak <none>
%%barnumbers 0
L: 1/8
M: 2/4
K: G clef=bass
E,2 [I:setbarnb 1]| 
B,2B,3/B,/ ||  
[M:3/4]B,3/G,/ G,3/E,/ E, z ]|:  
[M:2/4]G,2(B,3/G,/) | 
G,3/G,/ G,3/E,/ | 
E,3/C,/ E, z | 
(G,3/F,/) G,3/G,/ ||  
[M:3/4]G,2(F,3/E,/)E,2 ||  
[M:2/4](G,3/F,/) F,E, ||  
[M:3/4]E,3/E,/ E,3/E,/ C,/C,/ z ||  
[M:2/4]E,/E,3/ (3F,E,E, | 
E,/E,3/ E,3/E,/ | 
E,2C,/C,C,/ | 
E,2E,3/E,/ | 
E,4 :|]  



